packages/foundations/assets/icons/functional/images/social/face_neutral_24.svg

<svg width="24" height="24" viewBox="0 0 24 24" fill="none" xmlns="http://www.w3.org/2000/svg">
<g clip-path="url(#clip0_187_371)">
<path fill-rule="evenodd" clip-rule="evenodd" d="M19 12C19 15.86 15.86 19 12 19C8.14 19 5 15.86 5 12C5 8.14 8.14 5 12 5C15.86 5 19 8.14 19 12ZM3 12C3 16.971 7.029 21 12 21C16.971 21 21 16.971 21 12C21 7.029 16.971 3 12 3C7.029 3 3 7.029 3 12ZM9.3 8.5C10.128 8.5 10.8 9.172 10.8 10C10.8 10.828 10.128 11.5 9.3 11.5C8.472 11.5 7.8 10.828 7.8 10C7.8 9.172 8.472 8.5 9.3 8.5ZM14.7 11.5C15.528 11.5 16.2 10.828 16.2 10C16.2 9.172 15.528 8.5 14.7 8.5C13.872 8.5 13.2 9.172 13.2 10C13.2 10.828 13.872 11.5 14.7 11.5ZM16 15C16 14.447 15.552 14 15 14H9C8.448 14 8 14.447 8 15C8 15.553 8.448 16 9 16H15C15.552 16 16 15.553 16 15Z" fill="#1A1C1F"/>
</g>
<defs>
<clipPath id="clip0_187_371">
<rect width="24" height="24" fill="white"/>
</clipPath>
</defs>
</svg>

<svg xmlns="http://www.w3.org/2000/svg" width="24" height="24" fill="none"><g clip-path="url(#a)"><path fill="#1A1C1F" fill-rule="evenodd" d="M19 12c0 3.86-3.14 7-7 7s-7-3.14-7-7 3.14-7 7-7 7 3.14 7 7M3 12a9 9 0 0 0 9 9 9 9 0 0 0 9-9 9 9 0 0 0-9-9 9 9 0 0 0-9 9m6.3-3.5a1.5 1.5 0 1 1-.001 3.001A1.5 1.5 0 0 1 9.3 8.5m5.4 3a1.5 1.5 0 1 0-.001-3.001A1.5 1.5 0 0 0 14.7 11.5M16 15a1 1 0 0 0-1-1H9a1 1 0 1 0 0 2h6a1 1 0 0 0 1-1" clip-rule="evenodd"/></g><defs><clipPath id="a"><path fill="#fff" d="M0 0h24v24H0z"/></clipPath></defs></svg>
